svg/u1f3f5.svg

<svg viewBox="0 0 128 128" xmlns="http://www.w3.org/2000/svg">
  <polygon points="93.54,19.59 34.47,21.96 18.31,78.01 63.58,117.67 113.59,78.44 " fill="#C54C0F"/>
  <path d="M89.33,15.78c-0.88,0.98-2.74,13.61-1.61,14.52s14.28-3.43,14.96-4.68 c0.68-1.24,0.34-12.67-0.79-13.91C100.75,10.46,90.35,14.65,89.33,15.78z" fill="#A62714"/>
  <path d="M26.32,11.59c-1.51,1.16-1.58,14.14-0.68,14.93S38.2,32.29,39.9,30.6s0.11-14.37-0.68-15.27 C38.43,14.42,27.74,10.51,26.32,11.59z" fill="#A62714"/>
  <path d="M3.16,84.21c0.61,1.29,11.15,3.44,13.21,2.6c3.05-1.24,9.54-10.13,9.2-11.37 c-0.34-1.24-14.06-3.56-15.19-2.77S2.29,82.37,3.16,84.21z" fill="#A62714"/>
  <path d="M64.33,103.7c-1.13-0.09-7.36,11.08-7.36,12.78c0,1.7,6.57,9.67,7.58,9.74 c1.18,0.08,8.13-8.39,7.8-9.74C72,115.12,65.8,103.81,64.33,103.7z" fill="#A62714"/>
  <path d="M102.79,75.96c-0.4,1.2,6.79,10.63,8.37,10.97c1.58,0.34,13.23-1.7,13.8-4.07s-7.69-10.86-9.05-11.54 C114.55,70.64,103.35,74.26,102.79,75.96z" fill="#A62714"/>
  <path d="M58.58,57.57l14.46-2.2c0,0,1.34-10.89,5.83-16.77s11.3-10.53,11.3-18.97S84.59,4.45,78.51,4.21 s-9.97,3.3-14.95,3.06s-9.72-2.94-16.28-1.96s-12.15,10.4-9.24,18.36c2.92,7.96,10.76,12.21,13.25,17.38 c1.46,3.03,4.5,16.16,4.5,16.16L58.58,57.57z" fill="#FE6111"/>
  <path d="M70.19,52.19c0,0,9.85-3.12,14.53-12.61s7.09-13.69,14.05-15.13s12.73,1.8,15.97,5.89 c3.24,4.08,1.56,15.13,2.28,17.54s7.69,8.53,7.09,14.29s-6.73,13.69-14.53,13.33c-7.81-0.36-12.49-4.67-17.65-6.11 c-5.16-1.44-13.64-0.32-13.64-0.32L66.83,56.52L70.19,52.19z" fill="#FE6111"/>
  <path d="M57.58,52.91c0,0-9.05-6.83-11.98-9.84c-4.11-4.22-7.04-17.21-18.52-19.1 c-9.24-1.52-14.29,4.56-15.61,10.21s-0.24,9.61-0.72,11.41c-0.48,1.8-6.01,9.25-6.85,14.05s1.44,14.41,10.21,15.85 c8.77,1.44,12.49-2.64,15.13-4.2c2.64-1.56,7.45-3.96,11.41-3.6c3.96,0.36,9.73-0.24,9.73-0.24L57.58,52.91z" fill="#FE6111"/>
  <path d="M47.85,69.37c0,0-7.17,3.62-11.57,5.21c-5.09,1.84-12.93,0.2-18.7,7.52s-5.64,15.49-0.72,20.18 s10.93,3.96,13.81,6.73c2.88,2.76,7.69,11.17,13.57,12.25s15.01-1.44,16.81-10.09s-1.32-16.21,0.24-21.5 c1.56-5.28,5.84-10.87,5.84-10.87L47.85,69.37z" fill="#FE6111"/>
  <path d="M78.51,66.13L62.39,81.14c0,0,3.72,6.25,4.44,10.57c0.72,4.32-2.88,20.54,4.2,26.3 c7.09,5.76,15.23,4.08,19.43-1.57c4.2-5.64,6.18-8.03,8.46-9.83c2.28-1.8,14.03-6.48,14.99-12.49c0.96-6.01-0.49-9.02-6.25-13.47 c-5.76-4.44-12.97-3.24-18.14-5.4C86.13,73.83,78.51,66.13,78.51,66.13z" fill="#FE6111"/>
  <path d="M66.47,54.11c0,0,8.04-12,8.17-19.94c0.12-7.69-4.8-12.13-10.45-11.89 c-6.61,0.28-10.45,6.01-9.49,13.33s7.9,19.36,7.9,19.36L66.47,54.11z" fill="#FFA624"/>
  <path d="M70.91,58.68c0,0,9.85-9.97,16.45-13.33c6.61-3.36,13.09-1.08,15.49,5.52s-3.48,12.73-9.61,13.45 c-6.13,0.72-20.9,0.48-20.9,0.48L70.91,58.68z" fill="#FFA624"/>
  <path d="M53.74,57.96c0,0-6.73-9.73-14.05-13.69s-14.89-1.56-16.33,4.56c-1.44,6.13,1.65,12.4,10.55,13.95 C42.19,64.22,53.26,60,53.26,60L53.74,57.96z" fill="#FFA624"/>
  <path d="M59.33,69.31c0,0-11,3.42-14,5.1c-3,1.68-9.67,5.61-9.91,12.94s4.44,10.46,11.04,9.74 c6.61-0.72,10.4-8.75,11.12-12.96C58.3,79.94,59.33,69.31,59.33,69.31z" fill="#FFA624"/>
  <path d="M66.71,70.81c0,0,0.04,12.39,2.84,18.55c3.01,6.63,10.98,10.77,16.37,6.91 c5.04-3.6,4.68-11.89-0.72-17.78s-16.57-9.37-16.57-9.37L66.71,70.81z" fill="#FFA624"/>
  <path d="M64.13,53.14c0,0-0.78-4.34,1.8-7.24c3.06-3.45,7.3-2.92,10.37-0.88c3.06,2.03,4.6,6.63,1.44,10.51 c-2.67,3.29-6.51,3.16-6.51,3.16L64.13,53.14z" fill="#FFFEFF"/>
  <path d="M71.62,60.94c0,0,2.24-2.15,6.2-1.64c3.84,0.5,7.34,4.29,6.2,8.78c-1.21,4.74-4.31,7.23-9.56,5.68 c-5.12-1.51-5.6-5.94-5.6-5.94L71.62,60.94z" fill="#FFFEFF"/>
  <path d="M57.85,70.45c0,0-3.44,3.01-2.67,8.01c0.68,4.37,3.44,6.37,7.92,6.63c4.48,0.26,7.92-3.53,7.58-8.01 c-0.34-4.48-5.34-8.7-5.34-8.7L57.85,70.45z" fill="#FFFEFF"/>
  <path d="M53.88,60.68c0,0-5.09-2.52-8.61-0.43c-3.62,2.15-4.48,7.06-3.27,9.73c1.21,2.67,3.47,5.29,7.92,4.56 c4.74-0.77,6.97-5.77,6.97-5.77L53.88,60.68z" fill="#FFFEFF"/>
  <path d="M62.15,53.79c0,0,1.03-4.13-2.32-7.84c-3.36-3.7-8.61-2.93-11.11-0.09s-3.53,7.49-0.17,10.76 c3.01,2.93,8.18,2.15,8.18,2.15L62.15,53.79z" fill="#FFFEFF"/>
  <path d="M55.6,55c-3.98,3.76-5.17,11.11-0.6,15.41c4.56,4.31,11.86,3.89,15.39,0.7 c3.53-3.19,4.85-9.22,1.4-14.56C68.35,51.21,60.25,50.61,55.6,55z" fill="#FCC318"/>
</svg>

<svg viewBox="0 0 128 128" xmlns="http://www.w3.org/2000/svg">
  <defs/>
  <path d="M93.54,19.59 L34.47,21.96 L18.31,78.01 L63.58,117.67 L113.59,78.44 Z" fill="#C54C0F"/>
  <path d="M89.33,15.78 C88.45,16.76 86.59,29.39 87.72,30.3 C88.85,31.21 102,26.87 102.68,25.62 C103.36,24.38 103.02,12.95 101.89,11.71 C100.75,10.46 90.35,14.65 89.33,15.78 Z" fill="#A62714"/>
  <path d="M26.32,11.59 C24.81,12.75 24.74,25.73 25.64,26.52 C26.54,27.31 38.2,32.29 39.9,30.6 C41.6,28.91 40.01,16.23 39.22,15.33 C38.43,14.42 27.74,10.51 26.32,11.59 Z" fill="#A62714"/>
  <path d="M3.16,84.21 C3.77,85.5 14.31,87.65 16.37,86.81 C19.42,85.57 25.91,76.68 25.57,75.44 C25.23,74.2 11.51,71.88 10.38,72.67 C9.25,73.46 2.29,82.37 3.16,84.21 Z" fill="#A62714"/>
  <path d="M64.33,103.7 C63.2,103.61 56.97,114.78 56.97,116.48 C56.97,118.18 63.54,126.15 64.55,126.22 C65.73,126.3 72.68,117.83 72.35,116.48 C72,115.12 65.8,103.81 64.33,103.7 Z" fill="#A62714"/>
  <path d="M102.79,75.96 C102.39,77.16 109.58,86.59 111.16,86.93 C112.74,87.27 124.39,85.23 124.96,82.86 C125.53,80.49 117.27,72 115.91,71.32 C114.55,70.64 103.35,74.26 102.79,75.96 Z" fill="#A62714"/>
  <path d="M58.58,57.57 L73.04,55.37 C73.04,55.37 74.38,44.48 78.87,38.6 C83.36,32.72 90.17,28.07 90.17,19.63 C90.17,11.19 84.59,4.45 78.51,4.21 C72.43,3.97 68.54,7.51 63.56,7.27 C58.58,7.03 53.84,4.33 47.28,5.31 C40.72,6.29 35.13,15.71 38.04,23.67 C40.96,31.63 48.8,35.88 51.29,41.05 C52.75,44.08 55.79,57.21 55.79,57.21 L58.58,57.57 Z" fill="#FE6111"/>
  <path d="M70.19,52.19 C70.19,52.19 80.04,49.07 84.72,39.58 C89.4,30.09 91.81,25.89 98.77,24.45 C105.73,23.01 111.5,26.25 114.74,30.34 C117.98,34.42 116.3,45.47 117.02,47.88 C117.74,50.29 124.71,56.41 124.11,62.17 C123.51,67.93 117.38,75.86 109.58,75.5 C101.77,75.14 97.09,70.83 91.93,69.39 C86.77,67.95 78.29,69.07 78.29,69.07 L66.83,56.52 L70.19,52.19 Z" fill="#FE6111"/>
  <path d="M57.58,52.91 C57.58,52.91 48.53,46.08 45.6,43.07 C41.49,38.85 38.56,25.86 27.08,23.97 C17.84,22.45 12.79,28.53 11.47,34.18 C10.15,39.83 11.23,43.79 10.75,45.59 C10.27,47.39 4.74,54.84 3.9,59.64 C3.06,64.44 5.34,74.05 14.11,75.49 C22.88,76.93 26.6,72.85 29.24,71.29 C31.88,69.73 36.69,67.33 40.65,67.69 C44.61,68.05 50.38,67.45 50.38,67.45 L57.58,52.91 Z" fill="#FE6111"/>
  <path d="M47.85,69.37 C47.85,69.37 40.68,72.99 36.28,74.58 C31.19,76.42 23.35,74.78 17.58,82.1 C11.81,89.42 11.94,97.59 16.86,102.28 C21.78,106.97 27.79,106.24 30.67,109.01 C33.55,111.77 38.36,120.18 44.24,121.26 C50.12,122.34 59.25,119.82 61.05,111.17 C62.85,102.52 59.73,94.96 61.29,89.67 C62.85,84.39 67.13,78.8 67.13,78.8 L47.85,69.37 Z" fill="#FE6111"/>
  <path d="M78.51,66.13 L62.39,81.14 C62.39,81.14 66.11,87.39 66.83,91.71 C67.55,96.03 63.95,112.25 71.03,118.01 C78.12,123.77 86.26,122.09 90.46,116.44 C94.66,110.8 96.64,108.41 98.92,106.61 C101.2,104.81 112.95,100.13 113.91,94.12 C114.87,88.11 113.42,85.1 107.66,80.65 C101.9,76.21 94.69,77.41 89.52,75.25 C86.13,73.83 78.51,66.13 78.51,66.13 Z" fill="#FE6111"/>
  <path d="M66.47,54.11 C66.47,54.11 74.51,42.11 74.64,34.17 C74.76,26.48 69.84,22.04 64.19,22.28 C57.58,22.56 53.74,28.29 54.7,35.61 C55.66,42.93 62.6,54.97 62.6,54.97 L66.47,54.11 Z" fill="#FFA624"/>
  <path d="M70.91,58.68 C70.91,58.68 80.76,48.71 87.36,45.35 C93.97,41.99 100.45,44.27 102.85,50.87 C105.25,57.47 99.37,63.6 93.24,64.32 C87.11,65.04 72.34,64.8 72.34,64.8 L70.91,58.68 Z" fill="#FFA624"/>
  <path d="M53.74,57.96 C53.74,57.96 47.01,48.23 39.69,44.27 C32.37,40.31 24.8,42.71 23.36,48.83 C21.92,54.96 25.01,61.23 33.91,62.78 C42.19,64.22 53.26,60 53.26,60 L53.74,57.96 Z" fill="#FFA624"/>
  <path d="M59.33,69.31 C59.33,69.31 48.33,72.73 45.33,74.41 C42.33,76.09 35.66,80.02 35.42,87.35 C35.18,94.68 39.86,97.81 46.46,97.09 C53.07,96.37 56.86,88.34 57.58,84.13 C58.3,79.94 59.33,69.31 59.33,69.31 Z" fill="#FFA624"/>
  <path d="M66.71,70.81 C66.71,70.81 66.75,83.2 69.55,89.36 C72.56,95.99 80.53,100.13 85.92,96.27 C90.96,92.67 90.6,84.38 85.2,78.49 C79.8,72.6 68.63,69.12 68.63,69.12 L66.71,70.81 Z" fill="#FFA624"/>
  <path d="M64.13,53.14 C64.13,53.14 63.35,48.8 65.93,45.9 C68.99,42.45 73.23,42.98 76.3,45.02 C79.36,47.05 80.9,51.65 77.74,55.53 C75.07,58.82 71.23,58.69 71.23,58.69 L64.13,53.14 Z" fill="#FFFEFF"/>
  <path d="M71.62,60.94 C71.62,60.94 73.86,58.79 77.82,59.3 C81.66,59.8 85.16,63.59 84.02,68.08 C82.81,72.82 79.71,75.31 74.46,73.76 C69.34,72.25 68.86,67.82 68.86,67.82 L71.62,60.94 Z" fill="#FFFEFF"/>
  <path d="M57.85,70.45 C57.85,70.45 54.41,73.46 55.18,78.46 C55.86,82.83 58.62,84.83 63.1,85.09 C67.58,85.35 71.02,81.56 70.68,77.08 C70.34,72.6 65.34,68.38 65.34,68.38 L57.85,70.45 Z" fill="#FFFEFF"/>
  <path d="M53.88,60.68 C53.88,60.68 48.79,58.16 45.27,60.25 C41.65,62.4 40.79,67.31 42,69.98 C43.21,72.65 45.47,75.27 49.92,74.54 C54.66,73.77 56.89,68.77 56.89,68.77 L53.88,60.68 Z" fill="#FFFEFF"/>
  <path d="M62.15,53.79 C62.15,53.79 63.18,49.66 59.83,45.95 C56.47,42.25 51.22,43.02 48.72,45.86 C46.22,48.7 45.19,53.35 48.55,56.62 C51.56,59.55 56.73,58.77 56.73,58.77 L62.15,53.79 Z" fill="#FFFEFF"/>
  <path d="M55.6,55 C51.62,58.76 50.43,66.11 55,70.41 C59.56,74.72 66.86,74.3 70.39,71.11 C73.92,67.92 75.24,61.89 71.79,56.55 C68.35,51.21 60.25,50.61 55.6,55 Z" fill="#FCC318"/>
</svg>
